X:1
T:Launch Out
T:Launch Out
T:John Robson Sweney
T:James Bruce Mackay, 1894
T:Public Domain Courtesy of the Cyber Hymnal™
T:Public Domain Courtesy of the Cyber Hymnal™
C:John Robson Sweney
Z:Public Domain
Z:Courtesy of the Cyber Hymnal™
%%score ( 1 2 ) ( 3 4 )
L:1/8
Q:1/4=104
M:4/4
K:Ab
V:1 treble 
V:2 treble 
V:3 bass 
V:4 bass 
V:1
 [CA][DB] | [Ec]2 [Ec]2 [Fd]2 [Ec][=EB] | [FA]2 [DF]2 [CE]2 CD | (EF)GA B2 E2 | [Ec]6 [CA][DB] | %5
w: 1.~Have you|toiled all night near the|shore in vain? Push a-|way * from the shore, launch|out; Where the|
w: 2.~Have your|souls grown faint with the|vi- gil long? Push a-|way * from the shore, launch|out; Put your|
w: 3.~Je- sus|bids to- day ev- ery|wea- ry soul, “Push a-|way * from the shore, launch|out”; Hear His|
 [Ec]2 [Ec]2 [Fd]2 [Ec][=EB] | [FA]2 [DF]2 [CE]2 CD | (EF)GA [Ac]2 [GB]2 | [EA]6 [EA]>[EA] | %9
w: flood is deep cast your|nets a- gain. Push a-|way * from the shore, launch|out; There a|
w: trust in Christ, He will|make you strong, Push a-|way * from the shore, launch|out; Be no|
w: lov- ing voice, He will|make you whole, Push a-|way * from the shore, launch|out; Leave the|
 [EG]2 [EG]2 [EG]2 [EG]>[EG] | [EA]2 [EA]2 [EA]2 [Ec]>[Ec] | [Ed]2 [Ed]>[Ed] [Ec]2 [Ac]2 | %12
w: bless- ing waits for your|souls to take, Haste a-|way from the bar- ren|
w: more con- tent with a|mea- ger share From your|Fa- ther’s a- bun- dant|
w: shore of sin with its|shal- low- ness, It has|no- thing of life to|
 [GB]6 [Ec]>[Ed] | [Ee]2 [Ee]2 [EA]2 [EB][_Gc] | [Fd]2 [Fd]2 [DF]2 [Fd]2 | %15
w: strand; Toil no|more in vain where the|surg- es break; “Launch|
w: store; Ask Him|large- ly now, He will|hear your prayer; And|
w: give; Look to|Je- sus now, who a-|lone can save; Launch|
 [Ec]2 [EB][EA] [EG]2 [EB]2 | [EA]6 ||"^Refrain" (Ac) | (z2 A2 A2) Bd | (z2 B2 A2) EE | %20
w: out” is your Lord’s com-|mand.||||
w: give till you want no|more.|Launch *|* * out, launch|* * out, Push|
w: out on His grace and|live.||||
 (AG)AB c2 A2 | e6 !fermata!E2 | [Ec]2 [Ec]2 [Fd]2 [Ec][=EB] | [FA]2 [FA]2 [FB]2 [FA][DF] | %24
w: ||||
w: a- * way from the shore,|launch out;|God’s grace flows free, like|a might- y sea, And|
w: ||||
 [CE]2 ([EA][Ac]) !fermata![Ge]2 [EG]2 | [EA]6 |] %26
w: ||
w: the Mas- * ter calls,|“Launch|
w: ||
V:2
 x2 | x8 | x6 CD | EFGA B2 E2 | x8 | x8 | x6 CD | EFGA x4 | x8 | x8 | x8 | x8 | x8 | x8 | x8 | x8 | %16
 x6 || x2 | (e6 Bd) | (e6 E)E | AGAB c2 A2 | (G2 A2 G2) E2 | x8 | x8 | x8 | x6 |] %26
V:3
 [A,,E,][A,,E,] | [A,,A,]2 [A,,A,]2 [A,,A,]2 [C,A,][C,A,] | [D,A,]2 [F,A,]2 A,2 C,D, | %3
w: ~ ~|~ ~ ~ ~ ~|~ ~ ~ ~ ~|
 E,F,G,A, B,2 E,2 | [A,,A,]6 [A,,E,][A,,E,] | [A,,A,]2 [A,,A,]2 [A,,A,]2 [C,A,][C,A,] | %6
w: ~ ~ ~ ~ ~ ~|~ ~ ~|~ ~ ~ ~ ~|
 [D,A,]2 [F,A,]2 A,2 C,D, | E,F,G,A, [E,E]2 [E,D]2 | [A,,C]6 [A,C]>[A,C] | %9
w: ~ ~ ~ ~ ~|~ ~ ~ ~ ~ ~|~ ~ ~|
 [E,B,]2 [E,B,]2 [E,B,]2 [D,B,]>[D,B,] | [C,A,]2 [C,A,]2 [C,A,]2 A,>A, | %11
w: ~ ~ ~ ~ ~|~ ~ ~ ~ ~|
 [G,B,]2 [G,B,]>[G,B,] A,2 [A,E]2 | [E,E]6 A,>[A,B,] | [A,C]2 [A,C]2 [A,C]2 [G,B,]A, | %14
w: ~ ~ ~ ~ ~|~ ~ ~|~ ~ ~ ~ ~|
 [D,A,]2 [D,A,]2 [D,A,]2 [D,A,]2 | [E,A,]2 [E,D][E,C] [E,B,]2 [E,D]2 | [A,,C]6 || z2 | %18
w: ~ ~ ~ ~|~ ~ ~ ~ Launch|out,||
 z2 [A,C]2 [E,B,]2 z2 | z2 [E,D]2 [A,C]2 E,E, | A,G,A,B, C2 A,2 | %21
w: launch out|~ ~ ~ ~|~ ~ ~ ~ Launch out,|
 [E,B,]2 [A,C]2 !fermata![E,B,]2 [G,B,]2 | A,2 A,2 A,2 [C,A,][C,A,] | %23
w: ||
 [D,A,]2 [D,D]2 [D,D]2 [D,D][D,A,] | [E,A,]2 [E,C]2 !fermata![E,B,]2 [E,D]2 | [A,,C]6 |] %26
w: |||
V:4
 x2 | x8 | x4 A,2 C,D, | (E,F,)G,A, B,2 E,2 | x8 | x8 | x4 A,2 C,D, | (E,F,)G,A, x4 | x8 | x8 | %10
 x6 A,>A, | x4 A,2 x2 | x6 A,3/2 x/ | x7 A, | x8 | x8 | x6 || x2 | x8 | x6 E,E, | %20
 (A,G,)A,B, C2 A,2 | x8 | A,2 A,2 A,2 x2 | x8 | x8 | x6 |] %26

